X:70
T:Turnpike, The
R:reel
Z:Transcribed by Dave Marshall
M:C|
K:A
|: ABcA BFAF | ~E3F Aceg | ~a3e faec | dBcA BAFG |
ABcA BFAF | ~E3F Aceg | ~a3e faec | dBGB A4 :|
|:E2GE BEGE | A2cA eAcA | B2^dB fBdB | e2ge bege |
~a3e fecA | defg a2ga | bgaf gece | dBGB A4 :|
